X:99
T: DEM HERRN UND GUTEN FREUNDE
N: E1128
O: Europa, Mitteleuropa, Deutschland
R: Trink -, Zech - Lied
M: 3/4
L: 1/4
K: C
C | C2C | C2A, | G,3 | G,2
G, | A,2A, | B,2B, | C2
C | C2C | C2C | D2D | B,2
B, | B,2A, | B,2B, | C2C | A,2
C | B,2A, | A,2G, | G,3 | z2

